img/service-2.svg

<svg width="60" height="60" viewBox="0 0 60 60" fill="none" xmlns="http://www.w3.org/2000/svg">
<circle cx="30" cy="30" r="30" fill="#B3E0F4"/>
<path d="M35.8523 38.4349C35.8523 39.4587 35.8523 40.4793 35.8523 41.5031C35.8523 41.6732 35.8651 41.8465 35.8427 42.0134C35.8587 41.9011 35.8747 41.7855 35.8875 41.6732C35.8747 41.7438 35.8555 41.8112 35.8299 41.8754C35.8715 41.7727 35.9163 41.67 35.9579 41.5673C35.9291 41.6315 35.8971 41.6893 35.8555 41.747C35.9227 41.6604 35.9899 41.5737 36.0572 41.4871C36.0155 41.5416 35.9707 41.5898 35.9163 41.6315C36.0027 41.5641 36.0892 41.4967 36.1756 41.4293C36.1212 41.471 36.0636 41.5031 36.0027 41.532C36.1052 41.4903 36.2076 41.4453 36.31 41.4036C36.2428 41.4293 36.1788 41.4453 36.1084 41.455C36.2204 41.4389 36.3356 41.4229 36.4476 41.41C35.9931 41.4485 35.5227 41.4165 35.0682 41.4165C34.0089 41.4165 32.9527 41.4165 31.8934 41.4165C30.61 41.4165 29.3267 41.4165 28.0401 41.4165C26.9327 41.4165 25.8254 41.4165 24.718 41.4165C24.19 41.4165 23.6587 41.4261 23.1274 41.4165C23.0922 41.4165 23.057 41.4132 23.0218 41.41C23.1338 41.4261 23.2491 41.4421 23.3611 41.455C23.2875 41.4453 23.2202 41.4261 23.153 41.4036C23.2555 41.4453 23.3579 41.4903 23.4603 41.532C23.3803 41.4967 23.3099 41.455 23.2395 41.4036C23.3259 41.471 23.4123 41.5384 23.4987 41.6058C23.4443 41.5577 23.3963 41.5095 23.3483 41.4518C23.4155 41.5384 23.4827 41.6251 23.5499 41.7117C23.5083 41.6539 23.4731 41.593 23.4443 41.5288C23.4859 41.6315 23.5307 41.7342 23.5723 41.8369C23.5467 41.7695 23.5275 41.7021 23.5179 41.6283C23.5339 41.7406 23.5499 41.8561 23.5627 41.9685C23.5435 41.7342 23.5563 41.4967 23.5563 41.2624C23.5563 40.6879 23.5563 40.1134 23.5563 39.539C23.5563 38.6853 23.5563 37.8316 23.5563 36.9747C23.5563 35.9316 23.5563 34.8854 23.5563 33.8423C23.5563 32.6966 23.5563 31.5541 23.5563 30.4083C23.5563 29.2529 23.5563 28.0976 23.5563 26.939C23.5563 25.8606 23.5563 24.7823 23.5563 23.7071C23.5563 22.7925 23.5563 21.881 23.5563 20.9663C23.5563 20.3148 23.5563 19.6633 23.5563 19.0118C23.5563 18.7069 23.5531 18.4052 23.5563 18.1004C23.5563 18.0586 23.5563 18.0201 23.5627 17.9784C23.5467 18.0907 23.5307 18.2063 23.5179 18.3186C23.5275 18.248 23.5467 18.1806 23.5723 18.1164C23.5307 18.2191 23.4859 18.3218 23.4443 18.4245C23.4731 18.3603 23.5083 18.3025 23.5499 18.248C23.4827 18.3346 23.4155 18.4213 23.3483 18.5079C23.3931 18.4534 23.4411 18.4085 23.4987 18.3635C23.4123 18.4309 23.3259 18.4983 23.2395 18.5657C23.2971 18.524 23.3579 18.4887 23.4219 18.4598C23.3195 18.5015 23.217 18.5465 23.1146 18.5882C23.1818 18.5625 23.2491 18.5433 23.3195 18.5304C23.2074 18.5465 23.0922 18.5625 22.9802 18.5753C23.1306 18.5561 23.2843 18.5657 23.4347 18.5657C23.7547 18.5657 24.0748 18.5657 24.3916 18.5657C25.4541 18.5657 26.5135 18.5657 27.576 18.5657C28.8594 18.5657 30.1428 18.5657 31.4293 18.5657C32.5399 18.5657 33.6536 18.5657 34.7642 18.5657C35.2922 18.5657 35.8171 18.5561 36.3452 18.5657C36.3932 18.5657 36.4412 18.5689 36.4892 18.5753C36.3772 18.5593 36.262 18.5433 36.15 18.5304C36.2044 18.54 36.2556 18.5561 36.31 18.5721C36.2076 18.5304 36.1052 18.4855 36.0027 18.4438C36.0636 18.4694 36.1212 18.5015 36.1756 18.54C36.0892 18.4726 36.0027 18.4052 35.9163 18.3379C35.9675 18.3796 36.0155 18.4245 36.0572 18.4759C35.9899 18.3892 35.9227 18.3025 35.8555 18.2159C35.8971 18.2705 35.9291 18.325 35.9579 18.386C35.9163 18.2833 35.8715 18.1806 35.8299 18.0779C35.8555 18.1421 35.8747 18.2063 35.8875 18.2769C35.8715 18.1645 35.8555 18.049 35.8427 17.9367C35.8715 18.1742 35.8523 18.4213 35.8523 18.6588C35.8523 19.3295 36.4412 19.9746 37.1325 19.9425C37.827 19.9104 38.4127 19.3777 38.4127 18.6588C38.4127 18.2897 38.4319 17.9174 38.3487 17.5516C38.1438 16.6369 37.2797 16.0207 36.3644 16.0014C36.2204 15.9982 36.0732 16.0014 35.9291 16.0014C35.0042 16.0014 34.0793 16.0014 33.1544 16.0014C31.807 16.0014 30.4628 16.0014 29.1154 16.0014C27.8449 16.0014 26.5711 16.0014 25.3005 16.0014C24.5996 16.0014 23.8987 16.0014 23.1978 16.0014C23.0122 16.0014 22.8298 16.0239 22.6474 16.056C22.2441 16.1298 21.8121 16.3801 21.5464 16.6947C21.2072 17.0926 21.0184 17.5419 21.0056 18.0715C21.0024 18.1549 21.0056 18.2384 21.0056 18.3186C21.0056 18.8995 21.0056 19.4804 21.0056 20.0613C21.0056 21.069 21.0056 22.0736 21.0056 23.0813C21.0056 24.3618 21.0056 25.6456 21.0056 26.9261C21.0056 28.3222 21.0056 29.7183 21.0056 31.1144C21.0056 32.4623 21.0056 33.8134 21.0056 35.1614C21.0056 36.3168 21.0056 37.4721 21.0056 38.6275C21.0056 39.4234 21.0056 40.2226 21.0056 41.0185C21.0056 41.4614 20.9736 41.9203 21.0632 42.3568C21.1432 42.7516 21.3928 43.1624 21.6968 43.4255C22.1033 43.7753 22.577 43.9743 23.1178 43.9872C23.1562 43.9872 23.1914 43.9872 23.2299 43.9872C23.4923 43.9872 23.7579 43.9872 24.0204 43.9872C25.0925 43.9872 26.1646 43.9872 27.24 43.9872C28.6194 43.9872 29.9987 43.9872 31.3781 43.9872C32.5559 43.9872 33.7336 43.9872 34.9146 43.9872C35.5355 43.9872 36.182 44.0385 36.7996 43.9358C37.1933 43.8716 37.6062 43.6245 37.8654 43.3196C38.2174 42.9056 38.4063 42.4306 38.4191 41.885C38.4223 41.7599 38.4191 41.6379 38.4191 41.5127C38.4191 40.8773 38.4191 40.2418 38.4191 39.6096C38.4191 39.218 38.4191 38.8265 38.4191 38.4349C38.4191 37.7642 37.8302 37.1191 37.1389 37.1512C36.438 37.1833 35.8523 37.716 35.8523 38.4349Z" fill="white"/>
<path d="M29.1507 38.3226C29.1507 38.3515 29.1475 38.3836 29.1443 38.4125C29.1603 38.3001 29.1763 38.1846 29.1891 38.0723C29.1795 38.13 29.1667 38.1846 29.1475 38.2392C29.1891 38.1365 29.2339 38.0338 29.2755 37.9311C29.2467 37.9985 29.2147 38.0562 29.1699 38.114C29.2371 38.0273 29.3043 37.9407 29.3715 37.854C29.3363 37.899 29.2979 37.9343 29.2531 37.9728C29.3395 37.9054 29.4259 37.838 29.5123 37.7706C29.4547 37.8123 29.3971 37.8476 29.3299 37.8765C29.4323 37.8348 29.5347 37.7899 29.6371 37.7481C29.5827 37.7674 29.5283 37.7802 29.4707 37.7899C29.5827 37.7738 29.6979 37.7578 29.81 37.7449C29.7492 37.7513 29.6915 37.7513 29.6339 37.7449C29.746 37.761 29.8612 37.777 29.9732 37.7899C29.9156 37.7802 29.8612 37.7674 29.8068 37.7481C29.9092 37.7899 30.0116 37.8348 30.114 37.8765C30.0468 37.8476 29.9892 37.8155 29.9316 37.7706C30.018 37.838 30.1044 37.9054 30.1908 37.9728C30.146 37.9375 30.1108 37.899 30.0724 37.854C30.1396 37.9407 30.2068 38.0273 30.274 38.114C30.2324 38.0562 30.1972 37.9985 30.1684 37.9311C30.21 38.0338 30.2548 38.1365 30.2964 38.2392C30.2772 38.1846 30.2644 38.13 30.2548 38.0723C30.2708 38.1846 30.2868 38.3001 30.2996 38.4125C30.2932 38.3515 30.2932 38.2937 30.2996 38.236C30.2836 38.3483 30.2676 38.4638 30.2548 38.5761C30.2644 38.5184 30.2772 38.4638 30.2964 38.4093C30.2548 38.512 30.21 38.6147 30.1684 38.7174C30.1972 38.65 30.2292 38.5922 30.274 38.5344C30.2068 38.6211 30.1396 38.7077 30.0724 38.7944C30.1076 38.7495 30.146 38.7141 30.1908 38.6756C30.1044 38.743 30.018 38.8104 29.9316 38.8778C29.9892 38.8361 30.0468 38.8008 30.114 38.7719C30.0116 38.8136 29.9092 38.8586 29.8068 38.9003C29.8612 38.881 29.9156 38.8682 29.9732 38.8586C29.8612 38.8746 29.746 38.8907 29.6339 38.9035C29.6947 38.8971 29.7524 38.8971 29.81 38.9035C29.6979 38.8875 29.5827 38.8714 29.4707 38.8586C29.5283 38.8682 29.5827 38.881 29.6371 38.9003C29.5347 38.8586 29.4323 38.8136 29.3299 38.7719C29.3971 38.8008 29.4547 38.8329 29.5123 38.8778C29.4259 38.8104 29.3395 38.743 29.2531 38.6756C29.2979 38.7109 29.3331 38.7495 29.3715 38.7944C29.3043 38.7077 29.2371 38.6211 29.1699 38.5344C29.2115 38.5922 29.2467 38.65 29.2755 38.7174C29.2339 38.6147 29.1891 38.512 29.1475 38.4093C29.1667 38.4638 29.1795 38.5184 29.1891 38.5761C29.1731 38.4638 29.1571 38.3483 29.1443 38.236C29.1475 38.2616 29.1507 38.2937 29.1507 38.3226C29.1603 38.6596 29.2851 38.9902 29.5251 39.2309C29.746 39.4523 30.1108 39.6224 30.4308 39.6064C31.1061 39.5775 31.7334 39.0415 31.711 38.3226C31.695 37.7931 31.5062 37.2924 31.1285 36.9137C30.7605 36.5446 30.2452 36.3296 29.7235 36.3296C28.645 36.3296 27.7361 37.2378 27.7361 38.3226C27.7361 39.4074 28.6418 40.3156 29.7235 40.3156C30.2452 40.3156 30.7605 40.1006 31.1285 39.7315C31.5062 39.3528 31.695 38.8522 31.711 38.3226C31.7334 37.6518 31.1061 37.01 30.4308 37.0389C29.7203 37.071 29.1731 37.6037 29.1507 38.3226Z" fill="white"/>
<path d="M37.7951 35.6911C38.7776 35.2707 39.6801 34.6609 40.4802 33.9549C41.2867 33.2424 42.0164 32.3534 42.4453 31.3585C42.5765 31.0536 42.7045 30.7487 42.7941 30.4278C42.8837 30.0972 42.9317 29.757 42.9669 29.4168C43.0246 28.8487 42.9893 28.2646 42.9893 27.6966C42.9893 26.8942 42.9893 26.0887 42.9893 25.2863C42.9893 25.0135 42.9893 24.7375 42.9893 24.4647C42.9893 24.1791 42.8869 23.9095 42.7141 23.6881C42.5285 23.4474 42.3269 23.3447 42.0484 23.2291C40.7106 22.6707 39.3729 22.109 38.0351 21.5506C37.8559 21.4768 37.6798 21.3934 37.4974 21.326C37.0942 21.1783 36.8061 21.326 36.4669 21.4672C35.6828 21.7945 34.9019 22.1219 34.1178 22.4492C33.4937 22.7092 32.8696 22.9692 32.2487 23.2323C32.1463 23.2741 32.0439 23.319 31.9415 23.3607C31.7911 23.4409 31.6726 23.5501 31.583 23.6913C31.4102 23.9159 31.3078 24.1791 31.3078 24.4679C31.3078 25.4115 31.3078 26.3518 31.3078 27.2954C31.3078 28.4508 31.2118 29.6511 31.6022 30.7583C31.9991 31.8816 32.6808 32.8733 33.5353 33.6981C34.393 34.5261 35.4075 35.2258 36.5053 35.6943C36.6525 35.7874 36.8093 35.8388 36.9822 35.8452C37.1518 35.8837 37.3214 35.8773 37.4942 35.8227C37.7919 35.7393 38.1119 35.5114 38.2591 35.2322C38.4159 34.9337 38.496 34.5743 38.3871 34.2437C38.2911 33.9484 38.0959 33.605 37.7983 33.4767C37.091 33.175 36.4253 32.777 35.814 32.3084C35.9004 32.3758 35.9868 32.4432 36.0732 32.5106C35.5292 32.087 35.0331 31.6088 34.6106 31.0632C34.6778 31.1499 34.7451 31.2365 34.8123 31.3232C34.5082 30.9284 34.249 30.5016 34.0538 30.0426C34.0954 30.1453 34.1402 30.248 34.1818 30.3507C34.0282 29.9849 33.9193 29.6062 33.8617 29.2146C33.8777 29.3269 33.8937 29.4425 33.9065 29.5548C33.8297 28.9707 33.8681 28.3673 33.8681 27.7768C33.8681 27.2761 33.8681 26.7787 33.8681 26.278C33.8681 25.7453 33.8681 25.2093 33.8681 24.6765C33.8681 24.6059 33.8681 24.5353 33.8681 24.4647C33.5545 24.8787 33.2409 25.2895 32.9272 25.7035C34.2586 25.1451 35.5932 24.5899 36.9245 24.0315C37.1134 23.9512 37.3022 23.8742 37.4878 23.794C37.2606 23.794 37.0334 23.794 36.8061 23.794C38.1375 24.3524 39.4689 24.9076 40.8003 25.4661C40.9891 25.5463 41.1747 25.6233 41.3635 25.7035C41.0499 25.2895 40.7362 24.8787 40.4226 24.4647C40.4226 25.4982 40.4226 26.5316 40.4226 27.565C40.4226 28.2229 40.4706 28.9001 40.3842 29.5516C40.4002 29.4393 40.4162 29.3237 40.429 29.2114C40.3714 29.6029 40.2626 29.9849 40.109 30.3475C40.1506 30.2448 40.1954 30.1421 40.237 30.0394C40.0386 30.4984 39.7793 30.922 39.4785 31.32C39.5457 31.2333 39.6129 31.1467 39.6801 31.06C39.2577 31.6056 38.7616 32.0838 38.2207 32.5074C38.3071 32.44 38.3935 32.3726 38.4799 32.3052C37.8687 32.7738 37.2062 33.1718 36.4989 33.4734C36.2237 33.589 35.9868 33.9677 35.91 34.2405C35.8268 34.5486 35.8652 34.9562 36.038 35.229C36.214 35.5018 36.4765 35.7457 36.8029 35.8195C36.9149 35.8355 37.0302 35.8516 37.1422 35.8644C37.3822 35.8644 37.5966 35.8067 37.7951 35.6911Z" fill="white"/>
</svg>

<svg width="60" height="60" fill="none" xmlns="http://www.w3.org/2000/svg"><circle cx="30" cy="30" r="30" fill="#B3E0F4"/><path d="M35.852 38.435v3.068c0 .17.013.343-.01.51.017-.112.033-.227.046-.34a1.05 1.05 0 01-.058.202c.041-.102.086-.205.128-.308a.997.997 0 01-.102.18l.201-.26a.756.756 0 01-.14.145l.259-.203a.944.944 0 01-.173.103c.102-.042.205-.087.307-.128a.889.889 0 01-.202.051c.112-.016.228-.032.34-.045-.455.039-.925.007-1.38.007H24.718c-.528 0-1.06.01-1.59 0-.036 0-.071-.004-.106-.007.112.016.227.032.34.045a1.1 1.1 0 01-.209-.051c.103.041.205.086.307.128a1.164 1.164 0 01-.22-.128l.259.202a1.37 1.37 0 01-.15-.154l.2.26a1.043 1.043 0 01-.105-.183c.042.102.087.205.128.308a.91.91 0 01-.054-.209c.016.113.032.228.045.34-.02-.234-.007-.471-.007-.706V39.54v-2.564-3.133-3.434-3.469-3.232-2.74-1.955c0-.305-.003-.607 0-.912 0-.041 0-.08.007-.122-.016.113-.032.228-.045.34a.857.857 0 01.054-.202c-.041.103-.086.206-.128.308a.886.886 0 01.106-.176l-.202.26a.925.925 0 01.15-.145l-.259.203a1.04 1.04 0 01.183-.106c-.102.041-.205.087-.307.128.067-.026.134-.045.205-.058-.113.017-.228.032-.34.045.15-.019.304-.01.455-.01h11.329c.528 0 1.053-.009 1.581 0 .048 0 .096.004.144.01a12.699 12.699 0 00-.339-.045c.054.01.106.026.16.042-.102-.042-.205-.087-.307-.128.06.025.118.058.173.096l-.26-.202c.052.042.1.086.141.138l-.202-.26c.042.054.074.109.103.17-.042-.103-.087-.205-.128-.308.026.064.045.128.058.199a12.422 12.422 0 01-.045-.34c.028.237.01.484.01.722 0 .67.588 1.316 1.28 1.284.694-.033 1.28-.565 1.28-1.284 0-.37.019-.742-.064-1.107-.205-.915-1.07-1.531-1.985-1.55-.144-.004-.29 0-.435 0H23.198c-.186 0-.368.022-.55.054a2 2 0 00-1.102.639c-.339.398-.528.847-.54 1.377-.004.083 0 .166 0 .247V41.019c0 .442-.032.901.057 1.338.08.395.33.805.634 1.069.406.35.88.548 1.42.561H34.916c.62 0 1.267.051 1.885-.051a1.884 1.884 0 001.065-.616c.352-.414.541-.89.554-1.435.003-.125 0-.247 0-.372V39.61v-1.175c0-.67-.589-1.316-1.28-1.284-.701.032-1.287.565-1.287 1.284z" fill="#fff"/><path d="M29.15 38.323a.849.849 0 01-.006.09c.016-.113.032-.228.045-.34a.982.982 0 01-.041.166c.041-.102.086-.205.128-.308a.8.8 0 01-.106.183l.201-.26a.825.825 0 01-.118.119l.26-.202a.936.936 0 01-.183.105c.102-.041.205-.086.307-.128a.974.974 0 01-.166.042c.112-.016.227-.032.339-.045a.81.81 0 01-.176 0c.112.016.227.032.34.045a.974.974 0 01-.167-.042l.307.129a.798.798 0 01-.182-.106l.259.202a.826.826 0 01-.119-.119l.202.26a.939.939 0 01-.106-.183c.042.103.087.206.128.308a.982.982 0 01-.041-.167c.016.113.032.228.045.34a.813.813 0 010-.176c-.016.112-.032.228-.045.34a.978.978 0 01.041-.167c-.041.103-.086.206-.128.308a.801.801 0 01.106-.183l-.202.26a.83.83 0 01.119-.118l-.26.202a.936.936 0 01.183-.106c-.102.042-.205.087-.307.128a.965.965 0 01.166-.041c-.112.016-.227.032-.34.044a.81.81 0 01.177 0 12.36 12.36 0 00-.34-.044c.058.01.113.022.167.041-.102-.041-.205-.086-.307-.128a.798.798 0 01.182.106l-.259-.202c.045.035.08.073.119.118l-.202-.26a.94.94 0 01.105.183c-.041-.102-.086-.205-.127-.308.019.055.032.11.041.167a12.364 12.364 0 01-.045-.34.732.732 0 01.007.087c.01.337.134.667.374.908.221.221.586.391.906.375.675-.029 1.302-.565 1.28-1.283-.016-.53-.205-1.03-.582-1.41a2.005 2.005 0 00-1.405-.583c-1.079 0-1.988.908-1.988 1.993 0 1.084.906 1.993 1.988 1.993.521 0 1.037-.215 1.404-.585.378-.378.567-.879.583-1.408.022-.671-.605-1.313-1.28-1.284-.71.032-1.258.565-1.28 1.284zM37.795 35.691c.983-.42 1.885-1.03 2.685-1.736.807-.713 1.536-1.602 1.965-2.596.132-.305.26-.61.35-.931.089-.33.137-.671.172-1.011.058-.568.022-1.152.022-1.72v-2.41-.822c0-.286-.102-.555-.275-.777-.185-.24-.387-.343-.666-.459-1.337-.558-2.675-1.12-4.013-1.678-.18-.074-.355-.158-.538-.225-.403-.148-.69 0-1.03.141l-2.35.982c-.623.26-1.247.52-1.868.783-.103.042-.205.087-.308.129a.937.937 0 00-.358.33 1.262 1.262 0 00-.275.777v2.827c0 1.156-.096 2.356.294 3.463.397 1.124 1.079 2.115 1.933 2.94a9.955 9.955 0 002.97 1.996.94.94 0 00.477.151.96.96 0 00.512-.022c.298-.084.618-.312.765-.59.157-.3.237-.659.128-.99-.096-.295-.291-.638-.589-.766a9.216 9.216 0 01-1.984-1.169l.26.203a8.23 8.23 0 01-1.463-1.448l.201.26a5.865 5.865 0 01-.758-1.28c.041.102.086.205.128.308a4.69 4.69 0 01-.32-1.136c.016.112.032.227.044.34-.076-.584-.038-1.188-.038-1.778v-1.499-1.601-.212l-.94 1.238c1.33-.558 2.665-1.113 3.997-1.671.188-.08.377-.158.563-.238h-.682l3.994 1.672.564.237c-.314-.413-.628-.824-.941-1.238v3.1c0 .658.048 1.335-.039 1.987.016-.113.032-.228.045-.34a4.651 4.651 0 01-.32 1.136l.128-.309a6.218 6.218 0 01-.759 1.281l.202-.26a8.313 8.313 0 01-1.46 1.447l.26-.202a9.187 9.187 0 01-1.981 1.168c-.275.116-.512.495-.589.767-.083.309-.045.716.128.989.176.273.439.517.765.59.112.017.227.033.34.045.24 0 .454-.057.652-.173z" fill="#fff"/></svg>
